X: 314
T: Zhong yangyan
%%abc-version 2.0
%%abcx-abcm2ps-target-version 5.9.1 (29 Sep 2008)
%%abc-creator hum2abc beta
%%abcx-conversion-date 2013/10/02 07:52:30
%%abc-edited-by Helmut Schaffrath
%%humdrum-veritas 761624309
%%humdrum-veritas-data 619751145
%%continueall 1
%%barnumbers 0
L: 1/8
M: 2/4
K: Bb
c' f' f' d' [I:setbarnb 1]| 
c'2c' d' | 
b g b d' | 
c'4 | 
f' f' f' d' | 
f' a g b | 
f3g | 
d f d c | 
c' f' f' d' | 
c' d' c' b | 
g b f d | 
c4 | 
b d' c' b | 
g b f d | 
c4 | 
b c' f' d' | 
c'3d' | 
c'4 |]  



